X:6
T:Anne Germaine MacDonald
R:Strathspey
C:David Greenberg, SOCAN
H:Composed for Anne Germaine "Miramichi" MacDonald
D:Jerry Holland, Fiddler's Choice
N:published by Dungreen Music,1998 [dungreen@astral.magic.ca]
N:This unverified abc transcription is for personal use only, provided this notice remains attached.
N:usually played in raised bass tuning (AEAE)
Z:Paul Cranford 
L:1/8
M:C
K:A
B,|A,>a (3aab a>fe>a|f>B (3Bfb a>gf>g|a>b(3 (agf) f>ec>b|f>ec>B c>AA:| 
B,|A,>A (3ccd e>dc>A|F>B (3BBc d>efA (3ccd e>dc>A|F>EC>B, C>A, (3A,A,B,| 
A,>A (3ccd e>dc>A|F>B (3BBc d>efb(3 (agf) f>ec>b|f>ec>B c>AA|]
